!!!!SEGMENT: pl-kk--i-545--016_anonim--sacred-song.krn
!!!cenid: 18xx:4493
!!!COM: Anonim
!!!COM-rismID: pe30004985
!!!CDT:
!!!CNT:
!!!OTL: [Sacred song]
!!!PDT:
!!!AGN: Sacred
!!!YEC: Copyright 2022 Narodowy Instytut Fryderyka Chopina (https://polishscores.org)
!!!YEM: License CC-BY-4.0 (https://creativecommons.org/licenses/by/4.0)
!!!SMS-siglum: PL-Kk
!!!SMS-shelfmark: I.545
!!!SMS-variant:
!!!SMS-altvar:
!!!SMS-shelfwork: 016 W
!!!NIFC-rismSourceID: 1001210831
!!!NIFC-rismChildID: 1001210997
!!!NIFC-islandoraID: pl-kk:17058
!!!URL-pdf-islandora: https://repozytorium.nifc.pl/islandora/object/pl-kk%3A17058/datastream/PDF/view
!!!URL-scan: https://polish.musicsources.pl/pl/lokalizacje/galeria/rekopisy/7172/12 @EN{Scan on Polish Music Sources Website} @PL{Skany w portalu Dziedzictwo Muzyki Polskiej w otwartym dostępie}
!!!IIIF:
!!!ONB-nifc: UWAGA: 10v-11r. Czterogłos niekompletny
!!!AIN: 1 alto 1 bass 1 soprn 1 tenor
!!!key: C
**kern	**kern
*part2	*part1
*staff2	*staff1
*ICvox	*ICvox
*Itenor&Ibass	*Isoprn&Ialto
*I"[Voci]	*I"[Voci]
*clefF4	*clefG2
*k[]	*k[]
*C:	*C:
*M4/4	*M4/4
*met(c)	*met(c)
*	*^
!!LO:TX:t=P:problem:Spuście nam na ziemskie niwy
4ryy	8g/	8g\
.	8g/	8g\
=1	=1	=1
1ryy	4.cc/	4.g\
.	8g/	8g\
.	4a/	4a\
.	4b/	4g\
=2	=2	=2
1ryy	2cc/	2g\
.	4cc/	4g\
.	4r	4r
=3	=3	=3
1ryy	2ee/	2cc\
.	4dd/	4b\
.	4b/	4g\
=4	=4	=4
1ryy	2cc/	2f#X\
.	2a/	2f#\
=5	=5	=5
1ryy	2a/	2f#X\
.	4g/	4g\
.	8g/	8g\
.	8g/	8g\
*	*v	*v
=6	=6
1ryy	4.cc/
.	8g/
.	4a/
.	4b/
!!LO:LB:g=original
=7	=7
!	!LO:N:vis=2.
1ryy	2cc/
.	4cc/
.	4r
=8	=8
1ryy	2ee/
.	4.dd/
.	8b/
=9	=9
1ryy	2cc/
.	4b/
.	4a/
=10	=10
1ryy	2a/
.	4g/
.	8g/
.	8b/
=11	=11
1ryy	4dd/
.	4dd/
.	4dd/
.	4ee/
=12	=12
1ryy	8ff/L
.	8ee/J
.	4dd/
.	4r
.	8g/
.	8b/
!!LO:PB:g=original
=13	=13
1ryy	4dd/
.	4dd/
.	4dd/
.	4ee/
=14	=14
1ryy	8ff/L
.	8ee/J
.	2dd/
.	4dd/
=15	=15
1ryy	4.ee/
.	8dd/
.	4cc/
.	8b/L
.	8a/J
=16	=16
1ryy	2a/
.	4g/
.	4r
=17	=17
1ryy	2cc/
.	4g/
.	4cc/
!!LO:LB:g=original
=18	=18
1ryy	8ee/L
.	8dd/J
.	8cc/L
!	!LO:TX:t=P:problem:kreska taktowa
.	8b/J
.	2dd/
=19	=19
2.ryy	2.cc/
==	==
*-	*-
!!!system-decoration: {(s1,s2)}
!!!RDF**kern: i = editorial accidental
!!!RDF**kern: > = above
!!!RDF**kern: < = below
!!!RDF**kern: N = linked
!!!RDF**dynam: > = "dim.", fontstyle= "italic"
!!!RDF**kern: @ = marked note, color=red
!!!ENC: Filip Voros
!!!EED: Katarzyna Serwa
!!!END: 2023-10-28
!!!EEV: 2024-04-23
